Icons/Colored/RotateRandomLeft.svg

<svg xmlns="http://www.w3.org/2000/svg" xml:space="preserve" fill-rule="evenodd" stroke-linejoin="round" stroke-miterlimit="2" clip-rule="evenodd" viewBox="0 0 64 64">
  <g id="blue">
    <path fill="#73a7c7" fill-rule="nonzero" d="M33.508 53.539s8.445-.484 14.472-3.762c4.633-2.519 7.215-7.343 7.239-10.906.058-8.336-.344-17.437-2.184-20.258-3.656-5.593-14.414-4.109-14.414-4.109V8.535l-9.949 8.336 9.949 10.317v-6.586s6.703-1.637 8.957 2.433c1.063 1.918 1.32 9.035 1.297 16.016-.023 7.816-15.191 7.59-15.191 7.59l-.176 6.898Z"/>
  </g>
  <g id="orange">
    <path fill="#ffd49b" d="M15.707 44.422a2.95 2.95 0 0 1 2.949-2.953h10.766a2.95 2.95 0 0 1 2.949 2.953v10.762a2.949 2.949 0 0 1-2.949 2.949H18.656a2.949 2.949 0 0 1-2.949-2.949V44.422Zm2 0v10.762a.95.95 0 0 0 .949.949h10.766a.95.95 0 0 0 .949-.949V44.422a.951.951 0 0 0-.949-.953H18.656a.951.951 0 0 0-.949.953Zm.255-21.843a21.966 21.966 0 0 1-.017-.79c0-1.128.175-2.099.506-2.923.252-.631.645-1.27 1.198-1.91l.004-.005c.368-.421 1.027-1.044 1.981-1.855.785-.665 1.31-1.184 1.545-1.579.177-.3.266-.627.266-.982 0-.702-.303-1.309-.87-1.84-.606-.567-1.35-.84-2.227-.84-.841 0-1.546.241-2.109.747-.6.541-.956 1.405-1.143 2.554a.999.999 0 0 1-1.101.833l-2.675-.308a.995.995 0 0 1-.878-1.117c.273-2.186 1.125-3.851 2.488-5.013 1.361-1.157 3.146-1.758 5.375-1.758 2.354 0 4.224.646 5.626 1.883 1.467 1.291 2.19 2.856 2.19 4.691a5.85 5.85 0 0 1-.785 2.967c-.474.823-1.385 1.834-2.761 3.005-.771.657-1.28 1.134-1.513 1.445l-.01.013a2.418 2.418 0 0 0-.409.84c-.11.394-.165 1.035-.178 1.921a1 1 0 0 1-1 .985h-2.504a1 1 0 0 1-.999-.964Zm-.161 4.995v-2.855a1 1 0 0 1 1-1h2.969a1 1 0 0 1 1 1v2.855a1 1 0 0 1-1 1h-2.969a1 1 0 0 1-1-1Z"/>
  </g>
  <g id="brown">
    <path fill="#893d00" d="M17.707 44.422c0-.527.426-.953.949-.953h10.766c.523 0 .949.426.949.953v10.762a.95.95 0 0 1-.949.949H18.656a.95.95 0 0 1-.949-.949V44.422Z"/>
  </g>
</svg>

<?xml version="1.0" encoding="UTF-8" standalone="no"?>
<!DOCTYPE svg PUBLIC "-//W3C//DTD SVG 1.1//EN" "http://www.w3.org/Graphics/SVG/1.1/DTD/svg11.dtd">
<svg width="100%" height="100%" viewBox="0 0 64 64" version="1.1" xmlns="http://www.w3.org/2000/svg" xmlns:xlink="http://www.w3.org/1999/xlink" xml:space="preserve" xmlns:serif="http://www.serif.com/" style="fill-rule:evenodd;clip-rule:evenodd;stroke-linejoin:round;stroke-miterlimit:2;">
    <g id="surface1">
        <path d="M33.508,53.539C33.508,53.539 41.953,53.055 47.98,49.777C52.613,47.258 55.195,42.434 55.219,38.871C55.277,30.535 54.875,21.434 53.035,18.613C49.379,13.02 38.621,14.504 38.621,14.504L38.621,8.535L28.672,16.871L38.621,27.188L38.621,20.602C38.621,20.602 45.324,18.965 47.578,23.035C48.641,24.953 48.898,32.07 48.875,39.051C48.852,46.867 33.684,46.641 33.684,46.641L33.508,53.539Z" style="fill:#73a7c7;fill-rule:nonzero;"/>
        <path d="M17.707,44.422C17.707,43.895 18.133,43.469 18.656,43.469L29.422,43.469C29.945,43.469 30.371,43.895 30.371,44.422L30.371,55.184C30.371,55.707 29.945,56.133 29.422,56.133L18.656,56.133C18.133,56.133 17.707,55.707 17.707,55.184L17.707,44.422Z" style="fill:#893d00;"/>
        <path d="M15.707,44.422C15.707,42.789 17.027,41.469 18.656,41.469L29.422,41.469C31.051,41.469 32.371,42.789 32.371,44.422L32.371,55.184C32.371,56.813 31.051,58.133 29.422,58.133L18.656,58.133C17.027,58.133 15.707,56.813 15.707,55.184L15.707,44.422ZM17.707,44.422L17.707,55.184C17.707,55.707 18.133,56.133 18.656,56.133L29.422,56.133C29.945,56.133 30.371,55.707 30.371,55.184L30.371,44.422C30.371,43.895 29.945,43.469 29.422,43.469L18.656,43.469C18.133,43.469 17.707,43.895 17.707,44.422Z" style="fill:#ffd49b;"/>
        <path d="M18.961,22.543C18.949,22.207 18.945,21.957 18.945,21.789C18.945,20.805 19.09,19.957 19.379,19.238C19.594,18.699 19.934,18.156 20.406,17.609C20.754,17.211 21.379,16.625 22.281,15.859C23.184,15.094 23.77,14.48 24.039,14.027C24.309,13.57 24.445,13.074 24.445,12.535C24.445,11.559 24.047,10.703 23.258,9.965C22.465,9.223 21.496,8.855 20.348,8.855C19.238,8.855 18.313,9.191 17.57,9.859C16.828,10.527 16.34,11.574 16.109,12.996L13.434,12.688C13.672,10.785 14.391,9.324 15.578,8.313C16.773,7.297 18.348,6.793 20.305,6.793C22.379,6.793 24.035,7.336 25.27,8.426C26.504,9.512 27.121,10.824 27.121,12.367C27.121,13.262 26.902,14.082 26.469,14.836C26.035,15.59 25.188,16.504 23.926,17.578C23.074,18.305 22.52,18.84 22.262,19.184C21.996,19.527 21.805,19.922 21.68,20.367C21.555,20.813 21.48,21.539 21.465,22.543L18.961,22.543ZM18.801,27.574L18.801,24.719L21.77,24.719L21.77,27.574L18.801,27.574Z" style="fill:#ffd49b;fill-rule:nonzero;stroke:#ffd49b;stroke-width:2px;"/>
    </g>
</svg>
